X:11
T: Lóra, csikós, lóra
O: Bugas-Alsómonostor (Bács-Kiskun), Szénási Mihály (39), 1952.12
M: 2/4
L: 1/4
Q: "Rubato" 1/4=60
K: F
Hd/c/=B/c/ | d c | 
d/A/G/^F/ | A G | 
G/A/B/G/ | Hd HA | 
Hd/c/B/A/ | G<D | 
G/A/B/G/ | Hc HG | 

